svgs/materials/action/support.svg

<svg xmlns="http://www.w3.org/2000/svg" enable-background="new 0 0 24 24" height="24" viewBox="0 0 24 24" width="24"><g><rect fill="none" height="24" width="24"/></g><g><path d="M12,2C6.48,2,2,6.48,2,12c0,5.52,4.48,10,10,10s10-4.48,10-10C22,6.48,17.52,2,12,2z M19.46,9.12l-2.78,1.15 c-0.51-1.36-1.58-2.44-2.95-2.94l1.15-2.78C16.98,5.35,18.65,7.02,19.46,9.12z M12,15c-1.66,0-3-1.34-3-3s1.34-3,3-3s3,1.34,3,3 S13.66,15,12,15z M9.13,4.54l1.17,2.78c-1.38,0.5-2.47,1.59-2.98,2.97L4.54,9.13C5.35,7.02,7.02,5.35,9.13,4.54z M4.54,14.87 l2.78-1.15c0.51,1.38,1.59,2.46,2.97,2.96l-1.17,2.78C7.02,18.65,5.35,16.98,4.54,14.87z M14.88,19.46l-1.15-2.78 c1.37-0.51,2.45-1.59,2.95-2.97l2.78,1.17C18.65,16.98,16.98,18.65,14.88,19.46z"/></g></svg>

<?xml version="1.0" encoding="UTF-8" standalone="no"?>
<svg
   enable-background="new 0 0 24 24"
   height="24"
   viewBox="0 0 24 24"
   width="24"
   version="1.1"
   id="svg10"
   sodipodi:docname="support.svg"
   inkscape:version="1.2 (dc2aeda, 2022-05-15)"
   xmlns:inkscape="http://www.inkscape.org/namespaces/inkscape"
   xmlns:sodipodi="http://sodipodi.sourceforge.net/DTD/sodipodi-0.dtd"
   xmlns="http://www.w3.org/2000/svg"
   xmlns:svg="http://www.w3.org/2000/svg">
  <defs
     id="defs14" />
  <sodipodi:namedview
     id="namedview12"
     pagecolor="#ffffff"
     bordercolor="#000000"
     borderopacity="0.25"
     inkscape:showpageshadow="2"
     inkscape:pageopacity="0.0"
     inkscape:pagecheckerboard="0"
     inkscape:deskcolor="#d1d1d1"
     showgrid="false"
     inkscape:zoom="9.8333333"
     inkscape:cx="8.2372881"
     inkscape:cy="12"
     inkscape:window-width="1309"
     inkscape:window-height="456"
     inkscape:window-x="0"
     inkscape:window-y="25"
     inkscape:window-maximized="0"
     inkscape:current-layer="svg10" />
  <path
     id="rect2"
     style="fill:none"
     d="M 0,0 H 24 V 24 H 0 Z" />
  <path
     d="M 12,2 C 6.48,2 2,6.48 2,12 2,17.52 6.48,22 12,22 17.52,22 22,17.52 22,12 22,6.48 17.52,2 12,2 Z m 7.46,7.12 -2.78,1.15 C 16.17,8.91 15.1,7.83 13.73,7.33 l 1.15,-2.78 c 2.1,0.8 3.77,2.47 4.58,4.57 z M 12,15 c -1.66,0 -3,-1.34 -3,-3 0,-1.66 1.34,-3 3,-3 1.66,0 3,1.34 3,3 0,1.66 -1.34,3 -3,3 z M 9.13,4.54 10.3,7.32 C 8.92,7.82 7.83,8.91 7.32,10.29 L 4.54,9.13 C 5.35,7.02 7.02,5.35 9.13,4.54 Z M 4.54,14.87 7.32,13.72 c 0.51,1.38 1.59,2.46 2.97,2.96 L 9.12,19.46 C 7.02,18.65 5.35,16.98 4.54,14.87 Z m 10.34,4.59 -1.15,-2.78 c 1.37,-0.51 2.45,-1.59 2.95,-2.97 l 2.78,1.17 c -0.81,2.1 -2.48,3.77 -4.58,4.58 z"
     id="path6" />
</svg>
